X:1
T: Jig in G
C:
R:Jig
Q:180
K:G
M:6/8
L:1/16
|:D2|B2B2B2 B4D2|B2B2B2 B4d2|g2f2e2 d2c2B2|d4c2 A4B2|
c2c2c2 c4D2|c2c2c2 c4e2|e2d2B2 d2c2A2|G2B2d2 g4:|
|:f2|g2f2g2 a2g2f2|b2a2g2 a2g2f2|g2f2g2 a2b2g2|f2d2d2 d2e2f2|
g2f2g2 a2g2f2|g2a2b2 b2a2g2|g2a2b2 a2g2f2|g6g4:|
